X:1
T:Title
L:1/8
Q:1/4=90
M:2/4
K:F
V:1 treble nm="Church Organ, Staff"
V:1
 cA GF | cA GF | CF GA | B c3 | fc BA | cc BA | Ac Ac | d e3 | dc Ac | =B A3- | A3 A | AB Ad | %12
w: By~J.~W.~Treadwell * * *||||||||||||
 fe dA | dA FD | A3 A | AA A=B | c=B AD | GF ED | C3 c | A2 G2 | F2 c2 | AG FC | FF FB | A3 C | %24
w: ||||||||||||
 FG AG | AB cB | AF A>G | F2 z2 |] %28
w: ||||

